packages/ffe-icons/icons/filled/md/view_array.svg

<svg xmlns="http://www.w3.org/2000/svg" height="24" viewBox="0 -960 960 960" width="24"><path d="M140.001-273.463v-413.074q0-22.276 15.6-37.869 15.599-15.593 37.884-15.593t37.862 15.593q15.577 15.593 15.577 37.869v413.074q0 22.276-15.6 37.869-15.599 15.593-37.884 15.593t-37.862-15.593q-15.577-15.593-15.577-37.869Zm208.077 53.462q-22.276 0-37.869-15.593t-15.593-37.869v-413.074q0-22.276 15.593-37.869t37.869-15.593h263.844q22.276 0 37.869 15.593t15.593 37.869v413.074q0 22.276-15.593 37.869t-37.869 15.593H348.078Zm364.998-53.462v-413.074q0-22.276 15.6-37.869 15.599-15.593 37.884-15.593t37.862 15.593q15.577 15.593 15.577 37.869v413.074q0 22.276-15.6 37.869-15.599 15.593-37.884 15.593t-37.862-15.593q-15.577-15.593-15.577-37.869Z"/></svg>

<svg xmlns="http://www.w3.org/2000/svg" height="24" viewBox="0 -960 960 960" width="24"><path d="M140-273.46v-413.08q0-22.27 15.6-37.87Q171.2-740 193.49-740q22.28 0 37.86 15.59 15.57 15.6 15.57 37.87v413.08q0 22.27-15.6 37.87Q215.72-220 193.44-220t-37.86-15.59Q140-251.19 140-273.46ZM348.08-220q-22.28 0-37.87-15.59-15.59-15.6-15.59-37.87v-413.08q0-22.27 15.59-37.87Q325.8-740 348.08-740h263.84q22.28 0 37.87 15.59 15.59 15.6 15.59 37.87v413.08q0 22.27-15.59 37.87Q634.2-220 611.92-220H348.08Zm365-53.46v-413.08q0-22.27 15.6-37.87Q744.28-740 766.56-740t37.86 15.59Q820-708.81 820-686.54v413.08q0 22.27-15.6 37.87Q788.8-220 766.51-220q-22.28 0-37.86-15.59-15.57-15.6-15.57-37.87Z"/></svg>
